build/system/VideoCSOutline.svg

<svg xmlns="http://www.w3.org/2000/svg" fill="none" viewBox="0 0 24 24" focusable="false"><path d="M0 0H24V24H0z"/><path fill="#74767B" fill-rule="evenodd" d="M12.0493 6C13.7061 6 15.0493 7.34326 15.0493 9L15.0493 15C15.0493 16.6567 13.7061 18 12.0493 18L5.19922 18C3.54248 18 2.19922 16.6567 2.19922 15L2.19922 9C2.19922 7.34326 3.54248 6 5.19922 6L12.0493 6ZM12.0493 7.30005C12.9883 7.30005 13.749 8.06104 13.749 9L13.749 15C13.749 15.939 12.9883 16.7 12.0493 16.7L5.19922 16.7C4.26025 16.7 3.49902 15.939 3.49902 15L3.49902 9C3.49902 8.06104 4.26025 7.30005 5.19922 7.30005L12.0493 7.30005ZM16.7383 9.15454L18.9175 8.20117C19.23 8.06445 19.5537 8.01245 19.8887 8.04565C20.0361 8.06006 20.1787 8.09033 20.3154 8.13623C20.4727 8.18872 20.623 8.26196 20.7661 8.35571C21.0347 8.53125 21.2466 8.75781 21.4023 9.03564C21.4756 9.16626 21.5327 9.302 21.5732 9.44214C21.624 9.6167 21.6489 9.79858 21.6489 9.98779L21.6489 13.0122C21.6489 13.2014 21.624 13.3835 21.5732 13.5581C21.5327 13.6982 21.4756 13.8337 21.4023 13.9644C21.2466 14.2422 21.0347 14.4688 20.7661 14.6443C20.498 14.8198 20.2056 14.9231 19.8887 14.9543C19.5537 14.9875 19.23 14.9355 18.9175 14.7988L16.7383 13.8455C16.4048 13.6997 16.2578 13.323 16.4033 12.9895C16.5493 12.656 16.9263 12.5085 17.2598 12.6545L19.4385 13.6077C19.5439 13.6538 19.6514 13.6714 19.7612 13.6606C19.8662 13.6504 19.9644 13.6155 20.0547 13.5562C20.1455 13.4971 20.2163 13.4214 20.2681 13.3291C20.3223 13.2329 20.3491 13.1272 20.3491 13.0122L20.3491 9.98779C20.3491 9.91138 20.3374 9.83936 20.3135 9.77124C20.3014 9.73674 20.2863 9.70329 20.2681 9.6709C20.2163 9.57861 20.1455 9.50293 20.0547 9.44385C19.9644 9.38452 19.8662 9.34961 19.7612 9.33936C19.6514 9.32861 19.5439 9.34619 19.4385 9.39233L17.2598 10.3455C16.9263 10.4915 16.5493 10.344 16.4033 10.0105C16.2578 9.677 16.4048 9.30029 16.7383 9.15454ZM6.25 10.3545C6.25 9.35376 7.3335 8.72827 8.19971 9.22876L11.0498 10.8743C11.9165 11.3745 11.9165 12.6255 11.0498 13.1257L8.19971 14.7712C7.3335 15.2717 6.25 14.6462 6.25 13.6455L6.25 10.3545ZM7.5498 13.6455L7.5498 10.3545L10.3999 12L7.5498 13.6455Z"/></svg>

<svg xmlns="http://www.w3.org/2000/svg" fill="none" viewBox="0 0 24 24" focusable="false"><path fill="#74767B" fill-rule="evenodd" d="M12.04 6c1.66 0 3 1.34 3 3v6c0 1.65-1.34 3-3 3H5.19c-1.65 0-3-1.35-3-3V9c0-1.66 1.35-3 3-3zm0 1.3c.94 0 1.7.76 1.7 1.7v6c0 .93-.76 1.7-1.7 1.7H5.19c-.93 0-1.7-.77-1.7-1.7V9c0-.94.77-1.7 1.7-1.7zm4.69 1.85 2.18-.95c.32-.14.64-.19.97-.16.15.02.29.05.43.09.16.05.31.13.45.22.27.18.48.4.64.68a1.904 1.904 0 0 1 .24.95v3.03a1.9 1.9 0 0 1-.24.95 1.98 1.98 0 0 1-1.52.99c-.33.03-.65-.02-.97-.16l-2.18-.95c-.33-.15-.48-.52-.33-.86.14-.33.52-.48.85-.33l2.18.95q.165.075.33.06c.1-.01.2-.05.29-.11s.16-.13.21-.23c.06-.09.08-.2.08-.31V9.98a.7.7 0 0 0-.03-.21.3.3 0 0 0-.05-.1.6.6 0 0 0-.21-.23.65.65 0 0 0-.29-.11.65.65 0 0 0-.33.06l-2.18.95c-.33.15-.71 0-.85-.33-.15-.34 0-.71.33-.86m-10.48 1.2c0-1 1.08-1.63 1.94-1.13l2.85 1.65c.87.5.87 1.75 0 2.25l-2.85 1.65c-.86.5-1.94-.13-1.94-1.13zm1.29 3.29v-3.29L10.39 12z"/></svg>
